X:12
T:Wests Hornpipe. CAM2.[12]
B:Anon MS#2, early 19thC, Northumbria, Cocks Coll.
Z:Village Music Project 2016 Steve Mansfield
M:C|
L:1/8
Q:2/4=60
K:G
g2 Bc dBdB | g2Bc d3g | edcB A2ab | c'bc'a gfed |
g2 Bc dBdB | g2Bc d3g | edcB A2ab | c'agf g4 :|
|: b2gb gbgb | a2 fa fafa | g2eg egeg | agfe d4 |
geTe2 fdTd2 | geTe2 fdTd2 | gfgd BdBG | d2d2d2 de/g/ :|

